X:1
T:Etude 8,Op 176
T:Etude 8,Op 176
T:Jean-Baptiste Duvernoy c. 1802 – c. 1880 
C:J.B.Duvernoy
%%score { 1 | 2 }
L:1/8
Q:1/4=88
M:4/4
K:F
V:1 treble nm="Piano" snm="Pno."
V:2 bass 
V:1
"^Cantabile"!p! f2 (fg fede | f2 g2 a4) |!<(! (g2 ga!<)!!>(! c'bag!>)! | fedc =Bcde | %4
 f2) (fg fede | f2 g2 a4) | (gfed c=BAB | c) z (c^c d^de=c |!p! f2) (fg fede | f2 g2 a4) | %10
!<(! (g2 ga!<)!!>(! c'bag!>)! | fedc =Bcde | f2) (fg fede | f2 g2 a4) | (defg fede | f4) z4!fine! | %16
!f!"_marc." .[eg]2 .[eg]2 !>![eg]4 | .[fa]2 .[fa]2 !>![fa]4 | .[gb]2 .[gb]2 .[fa]2 .[fa]2 | %19
 !>![eg]4 !>![ec']4 | .[eg]2 .[eg]2 !>![eg]4 | .[fa]2 .[fa]2 !>![fa]4 | %22
 .[gb]2 .[gb]2 .[fa]2 .[fa]2 | [eg]4!p! cdec!D.C.! |] %24
V:2
!p! ([F,A,]2 C2 [F,B,]2 C2) | ([F,A,]2 C2 [F,A,]2 C2) | (B,4 G,2 B,2 | C4 [G,B,]4 | %4
 [F,A,]2) (C2 [F,B,]2 C2 | [F,A,]2 C2 [F,A,]2 C2) | (G,4 F4 | [CE]4) z4 | %8
!p! ([F,A,]2 C2 [F,B,]2 C2) | ([F,A,]2 C2 [F,A,]2 C2) | (B,4 G,2 B,2 | C4 [G,B,]4 | %12
 [F,A,]2) (C2 [F,B,]2 C2 | [F,A,]2 C2 [F,A,]2 C2) | (B,2 G,2 C4 | [F,A,]2 C2 [F,A,]2) z2 | %16
!mf! .C,2 .C2 .C,2 .C2 | .C,2 .C2 .C,2 .C2 | .C,2 .C2 .C,2 .C2 | !>![C,G,]4 !>![C,G,]4 | %20
 .C,2 .C2 .C,2 .C2 | .C,2 .C2 .C,2 .C2 | .C,2 .C2 .C,2 .C2 | C,4!p! z4 |] %24

